X:1
T:Brother Mine
T:Composizione 2.0
T: 
C:David Arnold
%%score ( 1 2 3 )
L:1/8
Q:1/4=110
M:4/4
K:C
V:1 bass nm="Piano" snm="Pno."
V:2 bass 
V:3 bass 
V:1
!p!!ped! E,B,CB, E,B,CB,!ped-up! |!ped! E,B,CB, E,B,CB,!ped-up! |!ped! G,B,CB, G,B,CB,!ped-up! | %3
!ped! G,B,CB, G,B,CB,!ped-up! |!ped! F,B,CB, F,B,CB,!ped-up! |!ped! F,B,CB, F,B,CB,!ped-up! | %6
!ped! !>!E,B,DB, E,B,DB,!ped-up! |!ped! E,B,DB, E,B,DB,!ped-up! | %8
!p!!ped! A,,B,,C,B,, A,,B,,C,B,,!ped-up! |!ped! A,,B,,C,B,, A,,B,,C,B,,!ped-up! | %10
!ped! G,,B,,C,B,, G,,B,,C,B,,!ped-up! |!ped! G,,B,,C,B,, G,,B,,C,B,,!ped-up! | %12
!ped! F,,B,,C,B,, F,,B,,C,B,,!ped-up! |!ped! F,,B,,C,B,, F,,B,,C,B,,!ped-up! | %14
!ped! E,,B,,C,B,, E,,B,,C,B,,!ped-up! |!ped! E,,B,,C,B,, D,B,,E,B,,!ped-up! || %16
[K:E]!mp!!ped! C,,G,,A,,G,,!ped! C,,G,,A,,G,,!ped-up! |!ped! C,,G,,A,,G,, C,,G,,A,,G,,!ped-up! | %18
!ped! B,,,G,,A,,G,,!ped! B,,,G,,A,,G,,!ped-up! |!ped! B,,,G,,A,,G,, B,,,G,,A,,G,,!ped-up! | %20
!ped! E,,G,,A,,G,,!ped! E,,G,,A,,G,,!ped-up! |!ped! E,,G,,A,,G,, E,,G,,A,,G,,!ped-up! | %22
!ped! D,,G,,A,,G,,!ped! D,,G,,A,,G,,!ped-up! |!ped! D,,G,,A,,G,, =C,,G,,A,,G,,!ped-up! | %24
!ped! F,,C,=D,C, F,,C,D,C,!ped-up! |!ped! F,,C,=D,C, F,,C,D,C,!ped-up! | %26
!ped! F,,C,=D,C, F,,C,D,C,!ped-up! |!ped! F,,C,D,C, F,,C,D,C,!ped-up! | %28
!ped! G,,G,,,D,,G,, B,,D,,G,,B,,!ped-up! |!ped! D,/G,,/D,/G,/ B,/D,/B,/D/ z4!ped-up! | %30
!ped! [G,,,G,,]4 [G,,,G,,]2 [G,,,G,,]2!ped-up! | %31
[K:G][Q:1/4=50]!ped! (6:4:6E,,/B,,/E,/G,/E,/B,,/!ped! (6:4:6E,,/B,,/E,/G,/E,/B,,/!ped! (6:4:6E,,/B,,/E,/G,/E,/B,,/!ped! (6:4:6E,,/B,,/E,/G,/E,/B,,/!ped-up! | %32
!ped! (6:4:6D,,/B,,/E,/G,/E,/B,,/!ped! (6:4:6D,,/B,,/E,/G,/E,/B,,/!ped! (6:4:6D,,/B,,/E,/G,/E,/B,,/!ped! (6:4:6D,,/B,,/E,/G,/E,/B,,/!ped-up! | %33
!ped! (6:4:6C,,/A,,/C,/E,/C,/A,,/!ped! (6:4:6C,,/A,,/C,/E,/C,/A,,/!ped! (6:4:6C,,/A,,/C,/E,/C,/A,,/!ped! (6:4:6C,,/A,,/C,/E,/C,/A,,/!ped-up! | %34
!ped! (6:4:6B,,/F,/B,/^D/B,/F,/!ped! (6:4:6B,,/F,/B,/D/B,/F,/!ped! (6:4:6B,,/F,/B,/E/B,/F,/!ped! (6:4:6B,,/F,/B,/F/B,/F,/!ped-up! | %35
!ped! (6:4:6C,/G,/C/E/C/G,/!ped! (6:4:6C,/G,/C/E/C/G,/!ped! (6:4:6C,/G,/C/E/C/G,/!ped! (6:4:6C,/G,/C/E/C/G,/!ped-up! | %36
!ped! [B,,,B,,]2 [B,,F,B,]2!ped! (6:4:6E/^D/B,/F,/^D,/B,,/!ped! (3D/B,/F,/!>![B,,,B,,]!ped-up! || %37
[K:E][Q:1/4=100]!ff!!ped! C,G,A,G,!ped! C,G,A,G,!ped-up! |!ped! B,,G,A,G,!ped! B,,G,A,G,!ped-up! | %39
!ped! A,,G,A,G, A,,!ped!G,A,G,!ped-up! |!ped! G,,G,A,G, G,,!ped!G,A,G,!ped-up! | %41
!ped! F,G,A,G,!ped! F,G,A,G,!ped-up! |!ped! E,G,A,G,!ped! E,G,A,G,!ped-up! | %43
!ped! D,G,A,G, D,!ped!G,A,G,!ped-up! |!ped! G,,G,A,G, ^B,G,CG,!ped-up! |!ped! [D,G,^B,D]8!ped-up! | %46
!ped! D4 E4!ped-up! |!ped! !fermata!C8!ped-up! |] %48
V:2
 !>!E,,8- | E,,8 | !>!G,,8- | G,,8 | !>!F,,8- | F,,8 | x8 | z4 !>!E,,4 | A,,,8- | A,,,4 A,,,4 | %10
 G,,,8 | G,,,8 | F,,,8 | F,,,8 | E,,,8 | x8 ||[K:E] C,8- | C,4 !>!C,4 | !>!B,,8 | B,,8 | E,8- | %21
 E,4 !>!E,4 | !>!D,8 | x8 | F,,8- | A,4 F,4 | G,4 z4 | x8 | x8 | x8 | x8 |[K:G] E,,,4 E,,,4 | %32
 D,,,4 D,,,4 | C,,,4 C,,,4 | B,,,4 B,,,4 | C,,4 C,,4 | x8 ||[K:E] C,,8 | B,,,8 | A,,,8 | G,,,8 | %41
 F,,4 F,,4 | E,,4 E,,4 | D,,4 D,,4 | G,,,8 | z4 C4 | x8 | x8 |] %48
V:3
 x8 | x8 | x8 | x8 | x8 | x8 | x8 | x8 | x8 | x8 | x8 | x8 | x8 | x8 | x8 | x8 ||[K:E] x8 | x8 | %18
 x8 | x8 | x8 | x8 | x8 | x8 | x8 | F,,8 | F,,,8 | x8 | x8 | x8 | x8 |[K:G] x8 | x8 | x8 | x8 | %35
 x8 | x8 ||[K:E] x8 | x8 | x8 | x8 | x8 | x8 | x8 | x8 | x8 | x8 | x8 |] %48

